X: 16
T: Pollonesse #16
M: 3/4
L: 1/16
K: G
Q:120
g4 d2dB G2B2|dcBA GABc d2ef|g4 d2dB G2B2|AcAF G4G,4:|
g2gg g2g2 g2g2|f2af d2d2 d4|g2gg g2g2 g2g2|f2af d2d2 d4|
c2cc c2c2 c2c2|B2dB G2G2 G4|c2cc c2c2 c2c2|B2dB G2G2 G4:|

